X: 20812
T: COQUETTE SETT (tune 5)
C:
%R: jig
B: Elias Howe "The Musician's Companion" 1843 p.81 #2
S: http://imslp.org/wiki/The_Musician's_Companion_(Howe,_Elias)
Z: 2015 John Chambers <jc:trillian.mit.edu>
M: 6/8
L: 1/8
K: C
% - - - - - - - - - - - - - - - - - - - - - - - - - - - - -
V: 1 name="5"
G |\
c2d e2f | g3 zag | dfe ced | G3 z2G |\
c2d e2f | g3 Afd | cec gfd | c2e c2 H|]
G |\
f2d d^cd | e2c G^FG | GBc def | ege d2G |\
f2d d^cd | e2g g^fg | dbg fef | gbg fe"^D.C."d |]
K: Cm
G |\
c2c e2e | d2=B G=AB | c=Bc edc | dg^f g=fd |\
c2c cde | e2d fed | c2c =B=AB | cGe "^D.C."c2 |]
% - - - - - - - - - - Dance description - - - - - - - - - -
%%begintext align
%% First two give right hands across,
%% left hand back,
%% form line,
%% balance four,
%% half promenade,
%% -- ladies forward and back,
%% gentlemen the same,
%% -- balance four,
%% half right and left to place,
%% -- next two, &c.
%%endtext
% - - - - - - - - - - - - - - - - - - - - - - - - - - - - -
%%sep 1 1 300

%%sep 1 1 500

